X:4146
T:At The Lamb's High Feast
M:4/4
L:1/4
K:C
"^I""^ii"C C|G c "^viio""^IV"B/2 A/4 G/4 A/2 A/2|"^viio""^IV"G2 "^I""^IV"A A|"^IV""^IV"B "^vi""^iii"A "^iim7""^I"G/2 A/2 G/2 F/2|"^iii""^I"E2 E/2 D/2 "^viio""^IV"E/2 F/2|G/2 G/2 "^I""^IV"C E/2 "^iii""^IV"D/2 "^vim7""^V"E/2 C/2|"^V""^V"B,/2 "^vim7""^V"C/2 "^V""^V"D/2 "^vim7""^V"F/2 "^V""^V"E D|C2|]

